hw-11/build/images/icons/icon-services/icon-services.svg

<svg aria-hidden="true" style="position: absolute; width: 0; height: 0; overflow: hidden;" version="1.1" xmlns="http://www.w3.org/2000/svg" xmlns:xlink="http://www.w3.org/1999/xlink">
<defs>
<symbol id="icon-alarm" viewBox="0 0 32 32">
<path d="M30.74 10.003c-1.584-3.696-4.547-6.66-8.243-8.243 1-0.787 2.258-1.26 3.629-1.26 3.244 0 5.874 2.63 5.874 5.874 0 1.371-0.473 2.629-1.26 3.629zM30.5 16.5c0 3.852-1.512 7.343-3.963 9.94l2.029 2.028c0.268 0.269 0.434 0.639 0.434 1.049 0 0.819-0.664 1.483-1.483 1.483-0.41 0-0.781-0.166-1.049-0.435l-2.178-2.178c-2.351 1.642-5.205 2.613-8.29 2.613-3.079 0-5.928-0.966-8.276-2.603l-2.163 2.163c-0.272 0.272-0.647 0.44-1.061 0.44-0.828 0-1.5-0.672-1.5-1.501 0-0.413 0.168-0.789 0.439-1.060l2.012-2.012c-2.443-2.595-3.951-6.082-3.951-9.927 0-8.008 6.492-14.5 14.5-14.5s14.5 6.492 14.5 14.5zM16 5c-6.351 0-11.5 5.148-11.5 11.5 0 6.351 5.149 11.5 11.5 11.5s11.5-5.149 11.5-11.5c0-6.352-5.149-11.5-11.5-11.5zM22 18h-6c-0.828 0-1.5-0.672-1.5-1.5v-8c0-0.828 0.672-1.5 1.5-1.5s1.5 0.672 1.5 1.5v6.499h4.5c0.828 0 1.5 0.672 1.5 1.501 0 0.828-0.672 1.5-1.5 1.5zM1.287 10.205c-0.804-1.020-1.287-2.305-1.287-3.705 0-3.314 2.686-6 6-6 1.4 0 2.685 0.483 3.706 1.287-3.775 1.617-6.802 4.644-8.419 8.418z"></path>
</symbol>
<symbol id="icon-book" viewBox="0 0 32 32">
<path d="M31.065 25.889l-14.471 5.988c-0.182 0.079-0.383 0.123-0.594 0.123s-0.412-0.044-0.594-0.123l-14.471-5.988c-0.548-0.223-0.935-0.761-0.935-1.389v-23c0-0.829 0.672-1.5 1.5-1.5 0.203 0 0.397 0.041 0.573 0.114h0.001l0.002 0.001c0.004 0.001 0.009 0.004 0.013 0.005l13.911 5.756 13.911-5.756c0.004-0.001 0.009-0.004 0.013-0.005l0.003-0.001c0.176-0.073 0.37-0.114 0.573-0.114 0.828 0 1.5 0.671 1.5 1.5v23c0 0.628-0.387 1.166-0.935 1.389zM14.5 8.503l-11.5-4.759v19.753l11.5 4.759v-19.753zM29 3.744l-11.5 4.759v19.753l11.5-4.759v-19.753zM19.879 10.634l5.5-2.5c0.189-0.086 0.399-0.134 0.621-0.134 0.828 0 1.5 0.671 1.5 1.5 0 0.607-0.361 1.129-0.879 1.365v0l-5.5 2.5c-0.19 0.087-0.4 0.135-0.621 0.135-0.828 0-1.5-0.672-1.5-1.5 0-0.607 0.361-1.13 0.879-1.366zM19.879 16.134v0l5.5-2.5c0.189-0.086 0.399-0.134 0.621-0.134 0.828 0 1.5 0.671 1.5 1.499 0 0.608-0.361 1.13-0.879 1.366l-5.5 2.5c-0.19 0.086-0.4 0.135-0.621 0.135-0.828 0-1.5-0.672-1.5-1.5 0-0.607 0.361-1.13 0.879-1.366zM19.879 21.634v0l5.5-2.5c0.189-0.086 0.399-0.134 0.621-0.134 0.828 0 1.5 0.671 1.5 1.5 0 0.607-0.361 1.129-0.879 1.365v0l-5.5 2.5c-0.19 0.087-0.4 0.135-0.621 0.135-0.828 0-1.5-0.672-1.5-1.5 0-0.607 0.361-1.13 0.879-1.366zM6 8c0.221 0 0.431 0.048 0.621 0.134v0l5.5 2.5c0.518 0.236 0.879 0.759 0.879 1.366 0 0.828-0.672 1.5-1.5 1.5-0.222 0-0.432-0.048-0.621-0.135v0l-5.5-2.5c-0.518-0.236-0.879-0.758-0.879-1.365 0-0.829 0.672-1.5 1.5-1.5zM6 13.5c0.221 0 0.431 0.048 0.621 0.134v0l5.5 2.5c0.518 0.236 0.879 0.759 0.879 1.366 0 0.828-0.672 1.5-1.5 1.5-0.222 0-0.432-0.049-0.621-0.135v0l-5.5-2.5c-0.518-0.236-0.879-0.758-0.879-1.366 0-0.828 0.672-1.499 1.5-1.499zM6 19c0.221 0 0.431 0.048 0.621 0.134v0l5.5 2.5c0.518 0.236 0.879 0.759 0.879 1.366 0 0.828-0.672 1.5-1.5 1.5-0.222 0-0.432-0.048-0.621-0.135v0l-5.5-2.5c-0.518-0.236-0.879-0.758-0.879-1.365 0-0.829 0.672-1.5 1.5-1.5z"></path>
</symbol>
<symbol id="icon-computer" viewBox="0 0 32 32">
<path d="M30 25h-9.5v2.499l2 2.001v0.5h-13v-0.5l2-2.001v-2.499h-9.5c-0.828 0-1.5-0.672-1.5-1.501v-19.999c0-0.829 0.672-1.5 1.5-1.5h28c0.828 0 1.5 0.671 1.5 1.5v19.999c0 0.829-0.672 1.501-1.5 1.501zM29.5 4h-27v17h27v-17zM13 11c0.414 0 0.789 0.168 1.061 0.439v0l0.939 0.939 2.939-2.939c0.272-0.272 0.647-0.439 1.061-0.439 0.828 0 1.5 0.671 1.5 1.5 0 0.414-0.168 0.789-0.439 1.061v0l-4 4c-0.272 0.271-0.647 0.439-1.061 0.439s-0.789-0.168-1.061-0.439v0l-2-2.001c-0.271-0.271-0.439-0.646-0.439-1.060 0-0.829 0.672-1.5 1.5-1.5z"></path>
</symbol>
<symbol id="icon-home" viewBox="0 0 32 32">
<path d="M32 16.5c0 0.828-0.672 1.499-1.5 1.499-0.395 0-0.752-0.155-1.020-0.405l-0.003 0.004-13.477-13.476-13.447 13.446c-0.271 0.267-0.643 0.431-1.053 0.431-0.828 0-1.5-0.671-1.5-1.499 0-0.425 0.177-0.808 0.461-1.081l14.458-14.459c0.273-0.283 0.656-0.46 1.081-0.46v0 0c0 0 0 0 0.001 0 0.026 0 0.052 0 0.079 0.002 0.004 0 0.008 0.001 0.012 0.001 0.023 0.001 0.045 0.003 0.068 0.005 0.001 0 0.002 0 0.004 0.001 0.367 0.040 0.694 0.212 0.933 0.468l0.001-0.001 5.902 5.902v-1.378c0-0.829 0.671-1.5 1.5-1.5 0.828 0 1.5 0.671 1.5 1.5v4.378l5.598 5.598-0.004 0.004c0.25 0.268 0.406 0.625 0.406 1.020zM29 19v10.5c0 0.828-0.672 1.5-1.5 1.5h-3v-12h-6v12h-14c-0.828 0-1.5-0.672-1.5-1.5v-10.5l13-13 13 13zM13.5 19h-6v6h6v-6z"></path>
</symbol>
<symbol id="icon-image" viewBox="0 0 32 32">
<path d="M30.5 32h-29c-0.829 0-1.5-0.672-1.5-1.5v-29c0-0.829 0.671-1.5 1.5-1.5h29c0.828 0 1.5 0.671 1.5 1.5v29c0 0.828-0.672 1.5-1.5 1.5zM29 3h-26v26h26v-26zM6.5 4.5h5.5c0.828 0 1.5 0.671 1.5 1.5s-0.672 1.5-1.5 1.5v0h-4.5v4.5c0 0.828-0.672 1.5-1.5 1.5s-1.5-0.672-1.5-1.5v0-7.5h2zM4.5 20v0c0-0.829 0.672-1.501 1.5-1.501s1.5 0.672 1.5 1.501v0 4.499l4.5 0.001c0.828 0 1.5 0.671 1.5 1.5 0 0.828-0.672 1.5-1.5 1.5v0h-7.5v-7.5zM20 4.5v0h7.5v7.5c0 0.828-0.672 1.5-1.5 1.5s-1.5-0.672-1.5-1.5v0-4.5h-4.5c-0.828 0-1.5-0.672-1.5-1.5s0.672-1.5 1.5-1.5zM20 24.5v-0.001h4.5v-4.499c0-0.829 0.672-1.501 1.5-1.501s1.5 0.672 1.5 1.501v0 7.5h-7.5c-0.828 0-1.5-0.672-1.5-1.5 0-0.829 0.672-1.5 1.5-1.5z"></path>
</symbol>
<symbol id="icon-line" viewBox="0 0 32 32">
<path d="M30.5 32h-29c-0.828 0-1.5-0.672-1.5-1.5v-29.001c0-0.827 0.672-1.499 1.5-1.499h29c0.828 0 1.5 0.672 1.5 1.499v29.001c0 0.828-0.672 1.5-1.5 1.5zM29 3h-26v26h26v-26zM5.215 16.239v-0.002l4-2.498c0.229-0.141 0.497-0.222 0.785-0.222 0.311 0 0.6 0.095 0.84 0.257l0.006-0.008 6.631 4.42 7.638-5.391c0.248-0.182 0.554-0.29 0.885-0.29 0.828 0 1.5 0.672 1.5 1.5 0 0.5-0.245 0.943-0.622 1.216h0.001l-8.501 6c-0.246 0.179-0.55 0.284-0.878 0.284-0.321 0-0.618-0.101-0.861-0.272l-6.657-4.438-3.135 1.96c-0.241 0.165-0.533 0.262-0.847 0.262-0.828 0-1.5-0.672-1.5-1.5 0-0.541 0.286-1.014 0.715-1.278z"></path>
</symbol>
</defs>
</svg>

<svg aria-hidden="true" style="position:absolute;width:0;height:0" xmlns="http://www.w3.org/2000/svg" overflow="hidden"><defs><symbol id="icon-alarm" viewBox="0 0 32 32"><path d="M30.74 10.003a15.723 15.723 0 00-8.243-8.243c1-.787 2.258-1.26 3.629-1.26A5.874 5.874 0 0132 6.374a5.846 5.846 0 01-1.26 3.629zM30.5 16.5c0 3.852-1.512 7.343-3.963 9.94l2.029 2.028a1.483 1.483 0 11-2.098 2.097l-2.178-2.178A14.426 14.426 0 0116 31c-3.079 0-5.928-.966-8.276-2.603L5.561 30.56a1.5 1.5 0 01-2.122-2.121l2.012-2.012C3.008 23.832 1.5 20.345 1.5 16.5 1.5 8.492 7.992 2 16 2s14.5 6.492 14.5 14.5zM16 5C9.649 5 4.5 10.148 4.5 16.5 4.5 22.851 9.649 28 16 28s11.5-5.149 11.5-11.5C27.5 10.148 22.351 5 16 5zm6 13h-6a1.5 1.5 0 01-1.5-1.5v-8a1.5 1.5 0 013 0v6.499H22A1.5 1.5 0 0122 18zM1.287 10.205A5.964 5.964 0 010 6.5a6 6 0 016-6c1.4 0 2.685.483 3.706 1.287a16.057 16.057 0 00-8.419 8.418z"/></symbol><symbol id="icon-book" viewBox="0 0 32 32"><path d="M31.065 25.889l-14.471 5.988a1.489 1.489 0 01-1.188 0L.935 25.889A1.5 1.5 0 010 24.5v-23A1.5 1.5 0 012.073.114h.001l.002.001.013.005L16 5.876 29.911.12l.013-.005.003-.001A1.5 1.5 0 0132 1.5v23a1.5 1.5 0 01-.935 1.389zM14.5 8.503L3 3.744v19.753l11.5 4.759V8.503zM29 3.744L17.5 8.503v19.753L29 23.497V3.744zm-9.121 6.89l5.5-2.5a1.5 1.5 0 011.242 2.731l-5.5 2.5a1.5 1.5 0 01-1.242-2.731zm0 5.5l5.5-2.5a1.5 1.5 0 111.242 2.731l-5.5 2.5a1.5 1.5 0 01-1.242-2.731zm0 5.5l5.5-2.5a1.5 1.5 0 011.242 2.731l-5.5 2.5a1.5 1.5 0 01-1.242-2.731zM6 8c.221 0 .431.048.621.134l5.5 2.5a1.501 1.501 0 01-1.242 2.731l-5.5-2.5A1.5 1.5 0 016 8zm0 5.5c.221 0 .431.048.621.134l5.5 2.5a1.501 1.501 0 01-1.242 2.731l-5.5-2.5A1.5 1.5 0 016 13.5zM6 19c.221 0 .431.048.621.134l5.5 2.5a1.501 1.501 0 01-1.242 2.731l-5.5-2.5A1.5 1.5 0 016 19z"/></symbol><symbol id="icon-computer" viewBox="0 0 32 32"><path d="M30 25h-9.5v2.499l2 2.001v.5h-13v-.5l2-2.001V25H2a1.5 1.5 0 01-1.5-1.501V3.5A1.5 1.5 0 012 2h28a1.5 1.5 0 011.5 1.5v19.999A1.5 1.5 0 0130 25zm-.5-21h-27v17h27V4zM13 11c.414 0 .789.168 1.061.439l.939.939 2.939-2.939a1.5 1.5 0 112.122 2.122l-4 4a1.499 1.499 0 01-2.122 0l-2-2.001A1.5 1.5 0 0113 11z"/></symbol><symbol id="icon-home" viewBox="0 0 32 32"><path d="M32 16.5a1.5 1.5 0 01-1.5 1.499 1.49 1.49 0 01-1.02-.405l-.003.004L16 4.122 2.553 17.568a1.5 1.5 0 11-2.092-2.149L14.919.96C15.192.677 15.575.5 16 .5h.001c.026 0 .052 0 .079.002l.012.001.068.005.004.001c.367.04.694.212.933.468l.001-.001L23 6.878V5.5a1.5 1.5 0 113 0v4.378l5.598 5.598-.004.004c.25.268.406.625.406 1.02zM29 19v10.5a1.5 1.5 0 01-1.5 1.5h-3V19h-6v12h-14A1.5 1.5 0 013 29.5V19L16 6l13 13zm-15.5 0h-6v6h6v-6z"/></symbol><symbol id="icon-image" viewBox="0 0 32 32"><path d="M30.5 32h-29A1.5 1.5 0 010 30.5v-29A1.5 1.5 0 011.5 0h29A1.5 1.5 0 0132 1.5v29a1.5 1.5 0 01-1.5 1.5zM29 3H3v26h26V3zM6.5 4.5H12a1.5 1.5 0 110 3H7.5V12a1.5 1.5 0 01-3 0V4.5h2zM4.5 20a1.5 1.5 0 113 0v4.499l4.5.001a1.5 1.5 0 110 3H4.5V20zM20 4.5h7.5V12a1.5 1.5 0 01-3 0V7.5H20a1.5 1.5 0 010-3zm0 20v-.001h4.5V20a1.5 1.5 0 113 0v7.5H20a1.5 1.5 0 010-3z"/></symbol><symbol id="icon-line" viewBox="0 0 32 32"><path d="M30.5 32h-29A1.5 1.5 0 010 30.5V1.499A1.5 1.5 0 011.5 0h29A1.5 1.5 0 0132 1.499V30.5a1.5 1.5 0 01-1.5 1.5zM29 3H3v26h26V3zM5.215 16.239v-.002l4-2.498a1.497 1.497 0 011.625.035l.006-.008 6.631 4.42 7.638-5.391a1.5 1.5 0 111.763 2.426h.001l-8.501 6c-.246.179-.55.284-.878.284-.321 0-.618-.101-.861-.272l-6.657-4.438-3.135 1.96a1.5 1.5 0 11-1.632-2.516z"/></symbol></defs></svg>
